X: 40994
T: Trip To Durrow, The
R: reel
M: 4/4
K: Dmajor
|:"D"D2~D2 ADFA|dfed "G"BABc|dBBA dBBA|"D"fade fe~e2|
"D"D2~D2 ADFD|dfed "G"BABc|dBBA "D"FAdB|"A7"AFGE "D"FD D2:|
|:"D"ABde fefg|afdf "Em"gfed|"A7"(3Bcd ef gebe|gebe gfef|
"D"dcde fefg|afdf "Em"gfed|"A7"(3Bcd ef gbag|fdec "D"d2de|
fdec "D"d2de|fded "G"Bee2|dBBA dBBA|"D"FADE "A7"FE E2|
"D"fdec d3e|fded "G"Bee2|"G"dBAB"D"d3e|faeg "D"fdd2||

